svg/tree.svg

<svg xmlns="http://www.w3.org/2000/svg" viewBox="0 0 48 64" enable-background="new 0 0 48 64"><style type="text/css">.st0{fill:#333333;}</style><title>tree</title><desc>Created with Sketch.</desc><path class="st0" d="M47.4 52.1l-11.4-16.8h6.6c.6 0 .8-.4.5-.8l-11.1-16.8h4.1c.6 0 .7-.4.4-.8l-11.9-16c-.3-.4-.9-.5-1.2 0l-11.9 16c-.3.4-.1.8.4.8h4.1l-11.1 16.8c-.3.5-.1.8.5.8h6.6l-11.4 16.8c-.3.5-.1.9.4.9h19.7v10c0 .6.4 1 1 1h4.6c.5 0 1-.4 1-1v-10h19.7c.6 0 .7-.4.4-.9zm-39.4-3.1l11.3-17h-8.3l12.3-18h-4.3l5-7 5 7h-4.3l12.3 18h-8.3l11.3 17h-32z"/></svg>

<svg xmlns="http://www.w3.org/2000/svg" viewBox="0 0 48 64"><path d="M47.4 52.1L36 35.3h6.6c.6 0 .8-.4.5-.8L32 17.7h4.1c.6 0 .7-.4.4-.8L24.6.9c-.3-.4-.9-.5-1.2 0l-11.9 16c-.3.4-.1.8.4.8H16L4.9 34.5c-.3.5-.1.8.5.8H12L.6 52.1c-.3.5-.1.9.4.9h19.7v10c0 .6.4 1 1 1h4.6c.5 0 1-.4 1-1V53H47c.6 0 .7-.4.4-.9zM8 49l11.3-17H11l12.3-18H19l5-7 5 7h-4.3L37 32h-8.3L40 49H8z" fill="#333"/></svg>
